X:1330
T:Halling 2
S:Efter Øystein Rudi
Z:[[http://www.bluerose.karenlmyers.org/IncipitsHalling2.html|Karen Myers (#2079)]]
Z:Upptecknad 4/2001
M:2/4
L:1/16
R:Halling
K:D
d'4 a4 |: F2(DF)(E4 | F2)(DF)(E4 | F2)(DF) E2(E2 | F2)(DF)E4 | F2(DF) E2(CE) | D2CB, B,2A,2 :|
a4- a2(fa | ^g2)(eg f2)[A,2D2A2]  | a4- a2(fa | ^g2)(eg f2)[A,2D2A2]  | a4- a2(fa | ^g2)(eg f2)(df | e2)(ce d2)(Bd |
c2)(Ac B2)(GB | A2)(FA G2)(EG | F2)(DF ED)(CE) | D4 D4 | a4- a2(fa | ^g2)(eg f2)[A,2D2A2]  | a4- a2(fa |
^g2)(eg f2)[A,2D2A2]  | a4- a2(fa) | (a^g)(eg) (gf)(df) | (fe)(ce) (ed)(Bd) |
(dc)(Ac) (cB)(GB) | (BA)(FA) (AG)(EG) | (GF)(DF) (ED)(CE) | D4 D4 |]
!open!G4 !open!A4 || d'4 a4 |
w:Harmonics|Harmonics
w:as~played|as~sounded
(:musicend:)

(:music:)
